(Design File: .Users.benjaminpoilve.Documents.Kicad.MiniChord.project.hardware.3D.backups.keycap.v3.c2d)
(stockMin:-150.00mm, -100.00mm, -8.00mm)
(stockMax:150.00mm, 100.00mm, 0.00mm)
(STOCK/BLOCK,300.00, 200.00, 8.00,150.00, 100.00, 8.00)
G90
G21
(Move to safe Z to avoid workholding)
G53G0Z-5.000
(VCarve.Toolpath.2.-.Vee)
M05
(TOOL/MILL,0.03, 0.00, 10.00, 22.50)
M6T5011
M03S10000
(PREPOSITION FOR RAPID PLUNGE)
G0X34.324Y29.166
Z2.000
G1Z0.000F150.0
X34.515Y29.357Z-0.461F300.0
X34.706Y29.166Z0.000
Z2.000
G0X34.515Y29.357
G1Z-0.461F150.0
Y29.477F300.0
X34.530Y29.587Z-0.501
X34.578Y29.697Z-0.614
Z2.000
G0Y30.957
G1Z-0.613F150.0
X34.530Y31.067Z-0.497F300.0
X34.515Y31.177Z-0.461
Y32.187
X34.324Y32.378Z0.000
Z2.000
G0X34.706
G1Z0.000F150.0
X34.515Y32.187Z-0.461F300.0
Z2.000
G0X36.323Y30.337
G1Z-0.485F150.0
X36.320Y30.213Z-0.492F300.0
X36.285Y29.981Z-0.485
X36.236Y29.817Z-0.486
X36.158Y29.662Z-0.482
X36.057Y29.529Z-0.470
X35.995Y29.469Z-0.453
X35.852Y29.376Z-0.440
X35.736Y29.325Z-0.421
X35.579Y29.291Z-0.409
X35.470Y29.285Z-0.407
X35.303Y29.293Z-0.391
X35.121Y29.339Z-0.376
X34.962Y29.421Z-0.368
X34.824Y29.557Z-0.326
X34.751Y29.619Z-0.354
X34.717Y29.639Z-0.391
X34.578Y29.697Z-0.614
X34.529Y29.965Z-0.495
X34.509Y30.251Z-0.447
X34.513Y30.496Z-0.456
X34.527Y30.684Z-0.494
X34.559Y30.876Z-0.567
X34.578Y30.957Z-0.614
X34.741Y31.028Z-0.363
X34.830Y31.107Z-0.326
X34.943Y31.228Z-0.375
X35.099Y31.318Z-0.386
X35.303Y31.368Z-0.396
X35.570Y31.366Z-0.421
X35.797Y31.302Z-0.439
X35.988Y31.181Z-0.460
X36.159Y30.978Z-0.472
X36.238Y30.819Z-0.480
X36.312Y30.529Z-0.485
X36.323Y30.337
Z2.000
G0X49.420Y30.768
G1Z0.000F150.0
X49.643Y30.957Z-0.458F300.0
X49.685Y30.901Z-0.324
Z2.000
G0X49.643Y30.957
G1Z-0.458F150.0
X49.700Y31.087Z-0.448F300.0
X49.780Y31.186Z-0.432
X49.857Y31.243Z-0.422
X50.004Y31.317Z-0.417
X50.238Y31.366Z-0.399
X50.375Y31.375Z-0.404
X50.575Y31.365Z-0.411
X50.722Y31.338Z-0.429
X50.852Y31.288Z-0.462
X50.939Y31.230Z-0.478
X50.998Y31.166Z-0.492
X51.046Y31.084
X51.080Y30.955Z-0.466
X51.084Y30.755Z-0.455
X51.075Y30.673Z-0.479
X51.042Y30.545Z-0.559
Z2.000
G0X51.353Y29.291
G1Z-0.394F150.0
X51.466Y29.406Z-0.121F300.0
Z2.000
G0X51.433Y29.227
G1Z-0.200F150.0
X51.353Y29.291Z-0.394F300.0
X51.240Y29.301Z-0.445
X51.156Y29.341Z-0.497
X51.120Y29.409Z-0.478
X51.103Y29.500Z-0.452
X51.047Y29.666Z-0.562
X50.911Y29.616Z-0.348
X50.827Y29.555Z-0.297
X50.665Y29.420Z-0.333
X50.492Y29.337Z-0.362
X50.204Y29.285Z-0.395
X49.995Y29.295Z-0.415
X49.782Y29.358Z-0.457
X49.680Y29.422Z-0.484
X49.621Y29.486Z-0.497
X49.578Y29.553Z-0.501
X49.547Y29.642Z-0.494
X49.535Y29.833Z-0.491
X49.566Y29.985Z-0.474
X49.648Y30.118Z-0.441
X49.763Y30.213Z-0.396
X49.833Y30.250Z-0.372
X50.027Y30.315Z-0.338
X50.673Y30.425Z-0.345
X50.837Y30.491Z-0.333
X50.923Y30.521Z-0.380
X51.042Y30.545Z-0.559
X51.074Y30.455Z-0.483
X51.085Y30.366Z-0.459
Y29.976
X51.076Y29.829Z-0.486
X51.047Y29.666Z-0.564
Z2.000
G0X65.384Y31.154
G1Z0.000F150.0
X65.553Y31.323Z-0.408F300.0
X65.384Y31.492Z0.000
Z2.000
G0X66.607
G1Z0.000F150.0
X66.438Y31.323Z-0.408F300.0
Z2.000
G0X66.607Y31.154
G1Z0.000F150.0
X66.438Y31.323Z-0.408F300.0
X66.157
X65.966Z-0.616
Y31.492Z-0.461
X65.975Y31.934Z-0.466
X65.997Y32.017Z-0.469
X66.065Y32.123Z-0.459
X66.119Y32.167Z-0.445
X66.256Y32.223Z-0.422
X66.355Y32.240Z-0.409
X66.499Z-0.403
X66.625Y32.099Z-0.099
Z2.000
G0X66.519Y32.259
G1Z-0.355F150.0
X66.499Y32.240Z-0.403F300.0
Z2.000
G0X65.966Y29.357
G1Z-0.461F150.0
Y31.154F300.0
Y31.323Z-0.616
X65.775Z-0.408
X65.553
Z2.000
G0X65.775Y29.166
G1Z0.000F150.0
X65.966Y29.357Z-0.461F300.0
X66.157Y29.166Z0.000
Z2.000
G0X81.131
G1Z0.000F150.0
X81.322Y29.357Z-0.461F300.0
Y29.481
X81.306Y29.590Z-0.500
X81.258Y29.700Z-0.616
X81.130Y29.647Z-0.401
X81.091Y29.624Z-0.353
X81.006Y29.548Z-0.323
X80.948Y29.477Z-0.357
X80.832Y29.384Z-0.380
X80.674Y29.318Z-0.390
X80.537Y29.292Z-0.393
X80.415Y29.283Z-0.398
X80.266Y29.293Z-0.414
X80.070Y29.342Z-0.430
X79.879Y29.452Z-0.452
X79.726Y29.602Z-0.468
X79.595Y29.839Z-0.475
X79.545Y30.016
X79.516Y30.233Z-0.481
X79.514Y30.336Z-0.495
X79.523Y30.510Z-0.489
X79.568Y30.744Z-0.493
X79.633Y30.914Z-0.485
X79.726Y31.066Z-0.472
X79.836Y31.185Z-0.457
X80.007Y31.295Z-0.434
X80.202Y31.359Z-0.417
X80.367Y31.374Z-0.410
X80.536Y31.365Z-0.395
X80.639Y31.342Z-0.385
X80.790Y31.281Z-0.376
X80.911Y31.204Z-0.354
X81.036Y31.075Z-0.325
X81.131Y31.008Z-0.415
X81.257Y30.959Z-0.618
X81.286Y30.829Z-0.548
X81.313Y30.626Z-0.483
X81.327Y30.411Z-0.449
Y30.246
X81.314Y30.038Z-0.480
X81.290Y29.851Z-0.538
X81.258Y29.700Z-0.616
Z2.000
G0X81.322Y29.357
G1Z-0.461F150.0
X81.513Y29.166Z0.000F300.0
Z2.000
G0X81.257Y30.959
G1Z-0.618F150.0
X81.305Y31.070Z-0.502F300.0
X81.322Y31.181Z-0.461
Y32.187
X81.131Y32.378Z0.000
Z2.000
G0X81.513
G1Z0.000F150.0
X81.322Y32.187Z-0.461F300.0
Z2.000
G0X96.464Y29.904
G1Z0.000F150.0
X96.219Y29.722Z-0.437F300.0
X96.147Y29.589Z-0.431
X96.019Y29.454Z-0.422
X95.884Y29.367Z-0.409
X95.706Y29.307Z-0.403
X95.467Y29.282Z-0.400
X95.264Y29.301Z-0.405
X95.142Y29.333Z-0.418
X95.016Y29.386Z-0.421
X94.908Y29.454Z-0.428
X94.781Y29.571Z-0.429
X94.724Y29.647Z-0.435
X94.640Y29.808Z-0.442
X94.575Y30.056Z-0.457
X94.563Y30.204Z-0.473
X94.576Y30.342Z-0.535
X94.592Y30.382Z-0.572
X94.759Z-0.406
X96.095
X96.185Y30.394Z-0.435
X96.275Y30.430Z-0.522
X96.280Y30.579Z-0.452
X96.221Y30.819Z-0.441
X96.129Y31.004Z-0.431
X96.018Y31.142Z-0.434
X95.948Y31.203
X95.825Y31.284Z-0.435
X95.682Y31.341Z-0.426
X95.578Y31.366Z-0.415
X95.446Y31.376Z-0.409
X95.251Y31.359Z-0.403
X95.074Y31.302Z-0.407
X94.966Y31.242Z-0.404
X94.840Y31.143Z-0.412
X94.721Y30.997Z-0.421
X94.646Y30.858Z-0.433
X94.594Y30.707Z-0.449
X94.565Y30.557Z-0.467
X94.571Y30.449Z-0.513
X94.592Y30.382Z-0.570
Z2.000
G0X96.275Y30.430
G1Z-0.521F150.0
X96.500Y30.214Z0.000F300.0
Z2.000
G0X96.219Y29.722
G1Z-0.438F150.0
X96.197Y29.754Z-0.361F300.0
Z2.000
G0X111.195Y30.886
G1Z-0.340F150.0
X111.232Y30.942Z-0.476F300.0
X111.166Y31.066Z-0.467
X111.098Y31.150Z-0.451
X110.996Y31.240Z-0.437
X110.887Y31.300Z-0.418
X110.766Y31.342Z-0.405
X110.522Y31.374Z-0.401
X110.294Y31.358Z-0.414
X110.093Y31.293Z-0.427
X109.933Y31.194Z-0.447
X109.800Y31.060Z-0.461
X109.751Y30.988Z-0.470
X109.673Y30.825Z-0.478
X109.618Y30.626Z-0.487
X109.590Y30.413Z-0.492
Y30.181Z-0.490
X109.626Y29.950Z-0.482
X109.676Y29.794Z-0.488
X109.773Y29.617Z-0.468
X109.835Y29.537Z-0.462
X109.922Y29.460Z-0.455
X110.068Y29.365Z-0.427
X110.174Y29.324Z-0.415
X110.354Y29.288Z-0.401
X110.613Y29.293Z-0.399
X110.739Y29.317Z-0.413
X110.826Y29.345Z-0.411
X110.954Y29.408Z-0.426
X111.049Y29.487Z-0.443
X111.142Y29.590Z-0.446
X111.215Y29.715Z-0.454
X111.255Y29.824Z-0.456
X111.497Y30.014Z0.000
Z2.000
G0X111.256Y29.825
G1Z-0.454F150.0
X111.233Y29.855Z-0.381F300.0
Z2.000
G0X111.232Y30.942
G1Z-0.476F150.0
X111.483Y30.745Z0.000F300.0
Z2.000
G0X19.546Y28.831
G1Z-0.188F150.0
X19.698Y28.723Z-0.451F300.0
X19.791Y28.853Z-0.138
Z2.000
G0X21.253Y29.783
G1Z-0.601F150.0
X21.305Y29.671Z-0.476F300.0
X21.321Y29.560Z-0.437
X21.310Y29.191Z-0.438
X21.258Y28.919Z-0.451
X21.192Y28.763Z-0.453
X21.103Y28.635Z-0.452
X20.995Y28.536Z-0.431
X20.850Y28.455Z-0.404
X20.728Y28.413Z-0.384
X20.567Y28.387Z-0.364
X20.317Y28.386Z-0.372
X20.121Y28.419Z-0.386
X19.964Y28.477Z-0.399
X19.826Y28.565Z-0.427
X19.757Y28.633Z-0.431
X19.698Y28.723Z-0.450
Z2.000
G0X21.322Y31.312
G1Z-0.435F150.0
X21.142Y31.492Z0.000F300.0
Z2.000
G0X21.502
G1Z0.000F150.0
X21.322Y31.312Z-0.435F300.0
Y31.159
X21.305Y31.048Z-0.476
X21.254Y30.938Z-0.599
X21.156Y30.981Z-0.427
X21.039Y31.074Z-0.317
X20.929Y31.202Z-0.350
X20.845Y31.266Z-0.375
X20.747Y31.319Z-0.380
X20.646Y31.352Z-0.393
X20.444Y31.376Z-0.408
X20.167Y31.335Z-0.421
X20.048Y31.284Z-0.431
X19.942Y31.217Z-0.440
X19.815Y31.100Z-0.450
X19.710Y30.947Z-0.461
X19.627Y30.744Z-0.470
X19.586Y30.536Z-0.479
X19.573Y30.315Z-0.490
X19.579Y30.194Z-0.489
X19.627Y29.924Z-0.490
X19.736Y29.679Z-0.475
X19.819Y29.564Z-0.457
X20.013Y29.408Z-0.428
X20.200Y29.334Z-0.411
X20.408Y29.313Z-0.408
X20.632Y29.337Z-0.386
X20.833Y29.423Z-0.371
X20.959Y29.539Z-0.340
X21.028Y29.631Z-0.303
X21.133Y29.725Z-0.394
X21.253Y29.783Z-0.601
X21.280Y29.927Z-0.536
X21.305Y30.173Z-0.476
X21.312Y30.364Z-0.459
X21.308Y30.537Z-0.468
X21.293Y30.714Z-0.505
X21.254Y30.938Z-0.599
Z2.000
M02
